X: 60
I: linebreak $
T: Mage on a Cree
T: round for four couples
C: 
P: 14 or 12 times through
K: D minor
M: 6/4
L: 1/8
"Gm"G2 |: "Gm"B3cde "F"f4c2 | "F"A4F2 c4A2 | "Gm"B3cd2 "Bb"d3cd2 | "Gm"B3AG2 "D"d4"Gm"G2 | "Gm"B3cde "F"f4c2 | "F"A4F2 c4A2 | 
"Gm"B3cd2 "C"e3fg2 | "D"^f3ef2 "G"g4 :| 

